X:400
T: MIR BLUEHET KEIN FRUEHLING
N: B0472A
O: Europa, Mitteleuropa, Deutschland, Rheinland
R: Liebes - Lied, Leid, Klage
M: 3/4
L: 1/8
K: G
D2 | B2cBAG | FGA2
D2 | c4dc | c2B2z
G | e2e3d | dcc2
dc | B4e2 | d2c2d2 | B4

@@@ Tune index: 2203
